svgs/duotone/ticket-airline.svg

<svg xmlns="http://www.w3.org/2000/svg" viewBox="0 0 640 512"><!--! Font Awesome Pro 6.4.0 by @fontawesome - https://fontawesome.com License - https://fontawesome.com/license (Commercial License) Copyright 2023 Fonticons, Inc. --><defs><style>.fa-secondary{opacity:.4}</style></defs><path class="fa-primary" d="M147.5 138.5L176 224H120l-19.2-25.6c-3-4-7.8-6.4-12.8-6.4H74.2c-5.2 0-9 4.9-7.8 9.9L79 252.1c.6 2.5 .6 5.2 0 7.8L66.5 310.1c-1.3 5 2.6 9.9 7.8 9.9H88c5 0 9.8-2.4 12.8-6.4L120 288h56l-28.5 85.5c-1.7 5.2 2.1 10.5 7.6 10.5h31.1c8.5 0 16.4-4.5 20.7-11.9L256 288h46.9c16.1 0 31.5-6.4 42.8-17.7c7.9-7.9 7.9-20.7 0-28.5C334.4 230.4 319 224 302.9 224H256l-49.1-84.1c-4.3-7.4-12.2-11.9-20.7-11.9H155.1c-5.5 0-9.3 5.3-7.6 10.5z"/><path class="fa-secondary" d="M64 64C28.7 64 0 92.7 0 128V384c0 35.3 28.7 64 64 64H576c35.3 0 64-28.7 64-64V336c0-8.8-7.3-15.8-15.8-18c-27.7-7-48.2-32.1-48.2-62s20.5-55 48.2-62c8.6-2.2 15.8-9.1 15.8-18V128c0-35.3-28.7-64-64-64H64zm352 64a16 16 0 1 1 32 0 16 16 0 1 1 -32 0zm0 64a16 16 0 1 1 32 0 16 16 0 1 1 -32 0zm16 48a16 16 0 1 1 0 32 16 16 0 1 1 0-32zm-16 80a16 16 0 1 1 32 0 16 16 0 1 1 -32 0zm16 48a16 16 0 1 1 0 32 16 16 0 1 1 0-32zM176 224l-28.5-85.5c-1.7-5.2 2.1-10.5 7.6-10.5h31.1c8.5 0 16.4 4.5 20.7 11.9L256 224h46.9c16.1 0 31.5 6.4 42.8 17.7c7.9 7.9 7.9 20.7 0 28.5C334.4 281.6 319 288 302.9 288H256l-49.1 84.1c-4.3 7.4-12.2 11.9-20.7 11.9H155.1c-5.5 0-9.3-5.4-7.6-10.5L176 288H120l-19.2 25.6c-3 4-7.8 6.4-12.8 6.4H74.2c-5.2 0-9-4.9-7.8-9.9L79 259.9c.6-2.5 .6-5.2 0-7.8L66.5 201.9c-1.3-5 2.6-9.9 7.8-9.9H88c5 0 9.8 2.4 12.8 6.4L120 224h56z"/></svg>

<svg xmlns="http://www.w3.org/2000/svg" viewBox="0 0 640 512"><!--! Font Awesome Pro 6.3.0 by @fontawesome - https://fontawesome.com License - https://fontawesome.com/license (Commercial License) Copyright 2023 Fonticons, Inc. --><defs><style>.fa-secondary{opacity:.4}</style></defs><path class="fa-primary" d="M155.1 128H186.2C194.8 128 202.6 132.5 206.9 139.9L256 224H302.9C318.1 224 334.4 230.4 345.7 241.7C353.6 249.6 353.6 262.4 345.7 270.3C334.4 281.6 318.1 288 302.9 288H256L206.9 372.1C202.6 379.5 194.8 384 186.2 384H155.1C149.6 384 145.8 378.6 147.5 373.5L176 288H120L100.8 313.6C97.78 317.6 93.04 320 88 320H74.25C69.04 320 65.22 315.1 66.49 310.1L79.03 259.9C79.67 257.3 79.67 254.7 79.03 252.1L66.49 201.9C65.22 196.9 69.04 192 74.25 192H88C93.04 192 97.78 194.4 100.8 198.4L120 224H176L147.5 138.5C145.8 133.4 149.6 128 155.1 128V128z"/><path class="fa-secondary" d="M576 64C611.3 64 640 92.65 640 128V192C604.7 192 576 220.7 576 256C576 291.3 604.7 320 640 320V384C640 419.3 611.3 448 576 448H64C28.65 448 0 419.3 0 384V128C0 92.65 28.65 64 64 64H576zM432 144C440.8 144 448 136.8 448 128C448 119.2 440.8 112 432 112C423.2 112 416 119.2 416 128C416 136.8 423.2 144 432 144zM432 208C440.8 208 448 200.8 448 192C448 183.2 440.8 176 432 176C423.2 176 416 183.2 416 192C416 200.8 423.2 208 432 208zM432 240C423.2 240 416 247.2 416 256C416 264.8 423.2 272 432 272C440.8 272 448 264.8 448 256C448 247.2 440.8 240 432 240zM432 336C440.8 336 448 328.8 448 320C448 311.2 440.8 304 432 304C423.2 304 416 311.2 416 320C416 328.8 423.2 336 432 336zM432 368C423.2 368 416 375.2 416 384C416 392.8 423.2 400 432 400C440.8 400 448 392.8 448 384C448 375.2 440.8 368 432 368zM120 224L100.8 198.4C97.78 194.4 93.04 192 88 192H74.25C69.04 192 65.22 196.9 66.48 201.9L79.03 252.1C79.67 254.7 79.67 257.3 79.03 259.9L66.48 310.1C65.22 315.1 69.04 320 74.25 320H88C93.04 320 97.78 317.6 100.8 313.6L120 288H176L147.5 373.5C145.8 378.6 149.6 384 155.1 384H186.2C194.8 384 202.6 379.5 206.9 372.1L256 288H302.9C318.1 288 334.4 281.6 345.7 270.3C353.6 262.4 353.6 249.6 345.7 241.7C334.4 230.4 318.1 223.1 302.9 223.1H256L206.9 139.9C202.6 132.5 194.8 127.1 186.2 127.1H155.1C149.6 127.1 145.8 133.3 147.5 138.5L176 223.1L120 224z"/></svg>
